!!!!SEGMENT: pl-wtm--r-1740-m--001-004_moniuszko-stanislaw--sonety-krymskie-piesn-mlodziencza.krn
!!!cenid: 18xx:2911
!!!COM: Moniuszko, Stanisław
!!!COM-rismID: pe30008351
!!!CDT: 1819/05/05-1872/06/04
!!!CNT: Polish
!!!GTL: Sonety krymskie
!!!OTL: Pieśń młodzieńcza
!!!OMV: 004
!!!PDT:
!!!AGN: Secular; Sonnet
!!!SMS-siglum: PL-Wtm
!!!SMS-shelfmark: R 1740/M
!!!SMS-shelfwork: 001-004 G
!!!SMS-variant:
!!!SMS-altvar:
!!!NIFC-rismSourceID: 1001096346
!!!NIFC-islandoraID:
!!!URL-pdf-islandora:
!!!URL-scan:
!!!ONB-nifc: UWAGA: w zbiorze 2 aranżacje Sonetów. Pliki nr 001-001-010 w obsadzie vl (2), vla, vlc, cb, physharmonica, pf 4hands i pliki 002-001-009 na instrumenty dęte od skanu 0088.
!!!AIN: 1 bass 1 cello 3 empty 1 physh 2 violn
!!!key:
**kern	**dynam	**kern	**dynam	**kern	**dynam	**kern	**dynam	**kern	**dynam	**kern	**kern	**dynam	**kern	**kern	**dynam	**kern	**kern	**dynam
*part8	*part8	*part7	*part7	*part6	*part6	*part5	*part5	*part4	*part4	*part3	*part3	*part3	*part2	*part2	*part2	*part1	*part1	*part1
*staff11	*	*staff10	*	*staff9	*	*staff8	*	*staff7	*	*staff6	*staff5	*	*staff4	*staff3	*	*staff2	*staff1	*
*group2	*	*group2	*	*group2	*	*group2	*	*group2	*	*group1	*group1	*	*group1	*group1	*	*	*	*
*Ibass	*	*Icello	*	*Iempty	*	*Ivioln	*	*Ivioln	*	*Iempty	*Iempty	*	*Iempty	*Iempty	*	*Iphysh	*Iphysh	*
*I"CB,	*	*I"Vccel	*	*I"Vle.	*	*I"V. 2.	*	*I"V. 1.	*	*I""Fortepiano.	*I""Fortepiano.	*	*I""Fortepiano.	*I""Fortepiano.	*	*I"Physharmonica.	*I"Physharmonica.	*
*clefF4	*	*clefF4	*	*clefC3	*	*clefG2	*	*clefG2	*	*clefF4	*clefF4	*	*clefG2	*clefG2	*	*clefF4	*clefG2	*
*Trd0c0	*	*	*	*	*	*	*	*	*	*	*	*	*	*	*	*	*	*
*k[f#c#g#]	*	*k[f#c#g#]	*	*k[f#c#g#]	*	*k[f#c#g#]	*	*k[f#c#g#]	*	*k[f#c#g#]	*k[f#c#g#]	*	*k[f#c#g#]	*k[f#c#g#]	*	*k[f#c#g#]	*k[f#c#g#]	*
*A:	*	*A:	*	*A:	*	*A:	*	*A:	*	*A:	*A:	*	*A:	*A:	*	*A:	*A:	*
*M6/8	*	*M6/8	*	*M6/8	*	*M6/8	*	*M6/8	*	*M6/8	*M6/8	*	*M6/8	*M6/8	*	*M6/8	*M6/8	*
*all\right	*	*all\right	*	*all\right	*	*all\right	*	*all\right	*	*all\right	*all\right	*	*all\right	*all\right	*	*all\right	*all\right	*
=1	=1	=1	=1	=1	=1	=1	=1	=1	=1	=1	=1	=1	=1	=1	=1	=1	=1	=1
!	!	!	!	!	!	!LO:TX:b:t=Col V 1	!	!	!	!	!	!	!	!	!	!	!LO:TX:t=P:problem=nazwy instrumentów zgodnie z kartą nr 0003	!
!	!	!	!LO:DY:rj	!LO:TX:t=P:problem=znaki przy kluczu w formie powtórzenia	!LO:DY:rj	!LO:TX:t=P:problem=znaki przy kluczu w formie powtórzenia	!LO:DY:rj	!LO:TX:t=P:problem=kolejność znaków f# cc# g#	!LO:DY:rj	!	!	!LO:DY:rj	!LO:TX:t=P:problem=znaki przy kluczu w formie powtórzenia	!LO:TX:t=P:problem=kolejność znaków f# cc# g#	!	!	!LO:TX:t=P:problem=kolejność znaków f# cc# g#	!
8AA/	.	8AA^/L	f	8A^/L	f	8A^/Lyy	f	8A^/L	f	4AAA/	8AA/L	ff	8A/L	2.r	.	2.r	2.r	.
8r	.	8C#/	.	8C#/	.	8c#/yy	.	8c#/	.	.	8C#/	.	8c#/	.	.	.	.	.
8r	.	8E/J	.	8E/J	.	8e/Jyy	.	8e/J	.	8r	8E/J	.	8e/J	.	.	.	.	.
4r	.	4A\	.	4A/	.	8a/yy	.	8a/	.	4r	4A\	.	4a\	.	.	.	.	.
.	.	.	.	.	.	8ryy	.	8r	.	.	.	.	.	.	.	.	.	.
8r	.	8c#\	.	8c#/	.	8cc#\yy	.	8cc#\	.	8r	8c#\	.	8cc#\	.	.	.	.	.
=2	=2	=2	=2	=2	=2	=2	=2	=2	=2	=2	=2	=2	=2	=2	=2	=2	=2	=2
4r	.	8e\	.	8e\	.	8ee\yy	.	8ee\	.	4r	8e\	.	8ee\	4r	.	4r	4r	.
.	.	8r	.	8r	.	8ryy	.	8r	.	.	8r	.	8r	.	.	.	.	.
8r	.	8r	.	8r	.	8ryy	.	8r	.	8r	8r	.	8r	8r	.	8r	8r	.
8E\	sf	8E\	sf	8e\	sf	8dd 8e/	sf	8gg# 8b\	sf	8EE/	8e 8B 8E\	sf	8b 8g#/	8gg# 8ee 8cc#\	sf	8E 8EE/	8dd 8b 8e^^/	.
8r	.	8r	.	8r	.	8r	.	8r	.	8r	8r	.	8r	8r	.	8r	8r	.
8r	.	8r	.	8r	.	8r	.	8r	.	8r	8r	.	8r	8r	.	8r	8r	.
=3	=3	=3	=3	=3	=3	=3	=3	=3	=3	=3	=3	=3	=3	=3	=3	=3	=3	=3
8AA/	sf	8AA/	sf	8a 8e 8c#\	sf	8cc# 8e/	sf	8aa 8a\	sf	8AA 8AAA/	8e 8c# 8A\	sf	8a/	8aa 8ee\	sf	8AA/	8cc# 8a 8e^^/	.
8r	.	8r	.	8r	.	8r	.	8r	.	8r	8r	.	8r	8r	.	8r	8r	.
8r	.	8r	.	8r	.	8r	.	8r	.	8r	8r	.	8r	8r	.	8r	8r	.
4r;	.	4r;	.	4r;	.	4r;	.	4r;	.	4r	4r	.	4r;	4r;	.	4r;	4r;	.
8r	.	8r	.	8r	.	8r	.	8r	.	8r	8r	.	8r	8r	.	8r	8r	.
=4	=4	=4	=4	=4	=4	=4	=4	=4	=4	=4	=4	=4	=4	=4	=4	=4	=4	=4
2.r	.	4r	.	4r	.	4r	.	4r	.	2.ryy	2.ryy	.	2.ryy	2.ryy	.	2.ryy	2.ryy	.
.	.	8r	p	8r	p	8r	p	8r	p	.	.	.	.	.	.	.	.	.
.	.	(4.c#^\	.	(4.e#X^\	.	(4.g#^/	.	(4.b^/	.	.	.	.	.	.	.	.	.	.
=5	=5	=5	=5	=5	=5	=5	=5	=5	=5	=5	=5	=5	=5	=5	=5	=5	=5	=5
2.r	.	4.d^\	.	4.f#^\	.	4.f#^/	.	4.b^/	.	2.ryy	2.ryy	.	2.ryy	2.ryy	.	2.ryy	2.ryy	.
.	.	4.A#X^\	.	4.f#^\	.	4.e^/	.	4.cc#^\	.	.	.	.	.	.	.	.	.	.
=6	=6	=6	=6	=6	=6	=6	=6	=6	=6	=6	=6	=6	=6	=6	=6	=6	=6	=6
!LO:N:vis=2	!	!	!	!	!	!	!	!	!	!	!	!	!	!	!	!	!	!
4.r	.	4B\)	.	4f#\)	.	4d/)	.	4dd\)	.	2.ryy	2.ryy	.	2.ryy	2.ryy	.	2.ryy	2.ryy	.
.	.	8r	.	8r	.	8r	.	8r	.	.	.	.	.	.	.	.	.	.
!LO:N:vis=2	!	!	!	!	!	!	!	!	!	!	!	!	!	!	!	!	!	!
4.r	.	4.D\	.	[4.B/	.	4.f#/	.	(4f#/	.	.	.	.	.	.	.	.	.	.
.	.	.	.	.	.	.	.	8b/)	.	.	.	.	.	.	.	.	.	.
=7	=7	=7	=7	=7	=7	=7	=7	=7	=7	=7	=7	=7	=7	=7	=7	=7	=7	=7
2.r	.	4E\	.	4B/]	.	4e/	.	(8g#/L	.	4r	4r	.	2.r	2.r	.	2.r	2.r	.
.	.	.	.	.	.	.	.	8a/)	.	.	.	.	.	.	.	.	.	.
.	.	8r	.	8r	.	8r	.	8b/J	.	8r	8r	.	.	.	.	.	.	.
!	!	!	!	!	!	!	!	!	!	!	!	!LO:DY:rj	!	!	!	!	!	!
.	.	4r	.	4r	.	4r	.	8e/	.	4EE^/	4E^\	p	.	.	.	.	.	.
.	.	.	.	.	.	.	.	8r	.	.	.	.	.	.	.	.	.	.
.	.	8r	.	8r	.	8r	.	8r	.	8DD/	8D\	.	.	.	.	.	.	.
!!LO:PB:g=original
=8	=8	=8	=8	=8	=8	=8	=8	=8	=8	=8	=8	=8	=8	=8	=8	=8	=8	=8
!LO:TX:a:t=Col viclo	!	!	!	!	!	!	!	!	!	!	!	!	!	!	!	!	!	!
!yLO:TX:b:t=pizzi	!	!LO:TX:b:t=pizzi	!	!	!	!	!	!	!	!	!	!	!	!	!	!	!	!
4C#/yy	.	4C#/	.	8A/	.	8e'/	.	8a|/	.	8CC#'/L	8C#'/L	pp	2.ryy	2.ryy	.	2.ryy	2.ryy	.
.	.	.	.	8r	.	8r	.	8r	.	8DD'/	8D'/	.	.	.	.	.	.	.
8ryy	.	8r	.	8A/	.	8c#'/	.	8a|/	.	8EE'/J	8E'/J	.	.	.	.	.	.	.
*	*	*	*	*	*	*	*	*	*	*rep	*rep	*	*	*	*	*	*	*
4C#/yy	.	4C#/	.	8A/	.	8e'/	.	8a|/	.	8CC#'/L	8C#'/L	.	.	.	.	.	.	.
.	.	.	.	8r	.	8r	.	8r	.	8DD'/	8D'/	.	.	.	.	.	.	.
8ryy	.	8r	.	8A/	.	8e'/	.	8g#|/	.	8EE'/J	8E'/J	.	.	.	.	.	.	.
*	*	*	*	*	*	*	*	*	*	*Xrep	*Xrep	*	*	*	*	*	*	*
=9	=9	=9	=9	=9	=9	=9	=9	=9	=9	=9	=9	=9	=9	=9	=9	=9	=9	=9
*	*	*	*	*rep	*	*	*	*	*	*	*	*	*	*	*	*	*	*
4D/yy	.	4D/	.	8A/	.	(4e/	.	(4g#/	.	8DD/L	8D\L	.	2.ryy	2.ryy	.	2.ryy	2.ryy	.
.	.	.	.	8r	.	.	.	.	.	8EE/	8E\	.	.	.	.	.	.	.
8ryy	.	8r	.	8A/	.	8d/)	.	8f#/)	.	8FF#/J	8F#\J	.	.	.	.	.	.	.
4F#\yy	.	4F#\	.	8A/	.	8d/	.	8f#/	.	8EE/L	8E\L	.	.	.	.	.	.	.
.	.	.	.	8r	.	8r	.	8r	.	8DD/	8D\	.	.	.	.	.	.	.
8ryy	.	8r	.	8A/	.	8f#'/	.	8f#/	.	8CC#/J	8C#\J	.	.	.	.	.	.	.
*	*	*	*	*Xrep	*	*	*	*	*	*	*	*	*	*	*	*	*	*
=10	=10	=10	=10	=10	=10	=10	=10	=10	=10	=10	=10	=10	=10	=10	=10	=10	=10	=10
!	!	!	!	!	!	!	!	!LO:S:s=1:note:problem=note-level slur	!	!	!	!	!	!	!	!	!	!
4BB/yy	.	4BB/	.	8B/	.	8f#|/	.	(8ddL 8d/	.	8BBB/L	8BB/L	.	2.ryy	2.ryy	.	2.ryy	2.ryy	.
.	.	.	.	8r	.	8r	.	8cc#/)	.	8CC#/	8C#/	.	.	.	.	.	.	.
8ryy	.	8r	.	8B|/	.	8f#|/	.	8b'/J	.	8DD/J	8D/J	.	.	.	.	.	.	.
4C#/yy	.	4C#/	.	8E|/	.	8e|/	.	(8a/L	.	8CC#/L	8C#/L	.	.	.	.	.	.	.
.	.	.	.	8r	.	8r	.	8g#/)	.	8DD/	8D/	.	.	.	.	.	.	.
8ryy	.	8r	.	8r	.	8d'/	.	8f#|/J	.	8EE/J	8E/J	.	.	.	.	.	.	.
=11	=11	=11	=11	=11	=11	=11	=11	=11	=11	=11	=11	=11	=11	=11	=11	=11	=11	=11
4D\yy	.	4D\	.	(4D/	.	(4d^/	.	4.f#^/	.	8DD/L	8D\L	.	2.ryy	2.ryy	.	2.ryy	2.ryy	.
.	.	.	.	.	.	.	.	.	.	8EE/	8E\	.	.	.	.	.	.	.
8ryy	.	8r	.	8B/)	.	8B/)	.	.	.	8FF#/J	8F#\J	.	.	.	.	.	.	.
4E\yy	.	4E\	.	(8B/L	.	(8B/L	.	8e/	.	8GG#/L	8G#\L	.	.	.	.	.	.	.
.	.	.	.	8A/)	.	8c#/)	.	8r	.	8AA/	8A\	.	.	.	.	.	.	.
8ryy	.	8r	.	8G#'/J	.	8d|/J	.	8e|/	.	8BB/J	8B\J	.	.	.	.	.	.	.
=12	=12	=12	=12	=12	=12	=12	=12	=12	=12	=12	=12	=12	=12	=12	=12	=12	=12	=12
4A\yy	.	4A\	.	8A'/	.	8c#'/	.	8cc#|\	.	8AA/L	8A\L	.	2.ryy	2.ryy	.	2.ryy	2.ryy	.
.	.	.	.	8r	.	8r	.	8r	.	8BB/	8B\	.	.	.	.	.	.	.
8ryy	.	8r	.	8c#|/	.	8e'/	.	8a|\	.	8C#/J	8c#\J	.	.	.	.	.	.	.
4E\yy	.	4E\	.	8B|/	.	8e'/	.	8g#'/	.	8EE/L	8E\L	.	.	.	.	.	.	.
.	.	.	.	8r	.	8r	.	8r	.	8FF#/	8F#\	.	.	.	.	.	.	.
8ryy	.	8r	.	8G#'/	.	8d'/	.	8b/	.	8GG#/J	8G#\J	.	.	.	.	.	.	.
=13	=13	=13	=13	=13	=13	=13	=13	=13	=13	=13	=13	=13	=13	=13	=13	=13	=13	=13
4F#\yy	.	4F#\	.	8F#'/	.	8c#'/	.	(4b/	.	8FF#/L	8F#\L	.	2.ryy	2.ryy	.	2.ryy	2.ryy	.
.	.	.	.	8r	.	8r	.	.	.	8GG#/	8G#\	.	.	.	.	.	.	.
8ryy	.	8r	.	8A'/	.	(8c#/	.	8a/)	.	8AA/J	8A\J	.	.	.	.	.	.	.
4C#/yy	.	4C#/	.	8A'/	.	8e/)	.	8a/	.	8CC#/L	8C#/L	.	.	.	.	.	.	.
.	.	.	.	8r	.	8r	.	8r	.	8DD/	8D/	.	.	.	.	.	.	.
8ryy	.	8r	.	8A'/	.	8e'/	.	8a|/	.	8EE/J	8E/J	.	.	.	.	.	.	.
=14	=14	=14	=14	=14	=14	=14	=14	=14	=14	=14	=14	=14	=14	=14	=14	=14	=14	=14
4D/yy	.	4D/	.	(4f#^\	.	(4f#^/	.	(4a/	.	8DD/L	8D\L	.	2.ryy	2.ryy	.	2.ryy	2.ryy	.
.	.	.	.	.	.	.	.	.	.	8EE/	8E\	.	.	.	.	.	.	.
8ryy	.	8r	.	8e\)	.	8e/)	.	8a#X/	.	8FF#/J	8F#\J	.	.	.	.	.	.	.
4BB/yy	.	4BB/	.	(8d\L	.	(8d/L	.	8b/)	.	8BBB/L	8BB/L	.	.	.	.	.	.	.
.	.	.	.	8c#\)	.	8e/)	.	8r	.	8CC#/	8C#/	.	.	.	.	.	.	.
8ryy	.	8r	.	8B'\J	.	8f#'/J	.	8an|/	.	8DD/J	8D/J	.	.	.	.	.	.	.
=15	=15	=15	=15	=15	=15	=15	=15	=15	=15	=15	=15	=15	=15	=15	=15	=15	=15	=15
4E\	.	4E\	.	8B|/	.	8e'/	.	8a'/	.	8EE/L	8E\L	.	4r	4r	.	2.ryy	2.ryy	.
.	.	.	.	8r	.	8r	.	8r	.	8FF#/	8F#\	.	.	.	.	.	.	.
8r	.	8r	.	8B|/	.	8e'/	.	8a'/	.	8EE/J	8E\J	.	8r	8r	.	.	.	.
4r	.	4EE/	.	8B|/	.	8e'/	.	8g#'/	.	8DD/L	8D/L	.	4r	4r	.	.	.	.
.	.	.	.	8r	.	8r	.	8r	.	8CC#/	8C#/	.	.	.	.	.	.	.
!	!	!	!	!	!	!	!	!	!	!	!	!	!	!	!LO:DY:rj:t=pp.	!	!	!
8r	.	8r	.	8r	.	8ryy	.	8r	.	8BBB/J	8BB/J	.	8e/	8ee\	pp	.	.	.
!!LO:PB:g=original
=16	=16	=16	=16	=16	=16	=16	=16	=16	=16	=16	=16	=16	=16	=16	=16	=16	=16	=16
*	*	*	*	*	*	*	*	*	*	*	*	*	*	*	*	*2\right	*	*
!	!	!LO:TX:b:t=arco	!	!	!	!	!LO:DY:rj	!	!	!	!	!	!	!	!	!	!	!LO:DY:rj:t=pp.
4r	.	8AA/	.	4r	p	4r	p	4r	p	4AA/	8r	.	[4.cc# [4.e/	[4.ccc# [4.ee\	.	2.A [2.E\	2.e 2.c#/	pp
.	.	8r	.	.	.	.	.	.	.	.	8E\L	.	.	.	.	.	.	.
!	!	!	!	!LO:TX:b:t=pizzi	!	!LO:TX:b:t=pizzi	!	!LO:TX:b:t=pizzi	!	!	!	!	!	!	!	!	!	!
8r	.	8r	.	8r	.	8r	.	8r	.	8r	8A\J	.	.	.	.	.	.	.
!LO:TX:b:t=pizzi	!	!	!	!	!	!	!	!	!	!	!	!	!	!	!	!	!	!
4E\	.	4r	.	4E/	.	4A/	.	4e 4c#/	.	4EE/	8c#\L	.	4cc#] 4e/]	4ccc#] 4ee\]	.	.	.	.
.	.	.	.	.	.	.	.	.	.	.	8A\	.	.	.	.	.	.	.
8r	.	8r	.	8r	.	8r	.	8r	.	8r	8E\J	.	8a/	8aa\	.	.	.	.
=17	=17	=17	=17	=17	=17	=17	=17	=17	=17	=17	=17	=17	=17	=17	=17	=17	=17	=17
*rep	*	*	*	*rep	*	*	*	*	*	*	*	*	*	*	*	*	*	*
4r	.	8BB/	.	4r	.	4r	.	4r	.	4BB/	8r	.	[4.g#/	[4.gg# [>4.ee\	.	2.B 2.E\_	2.e 2.d/	.
.	.	8r	.	.	.	.	.	.	.	.	8E\L	.	.	.	.	.	.	.
8r	.	8r	.	8r	.	8r	.	8r	.	8r	8B\J	.	.	.	.	.	.	.
4E\	.	4r	.	4E/	.	4e/	.	4d 4B/	.	4EE/	8d\L	.	4g#/]	4gg#] 4ee\]	.	.	.	.
.	.	.	.	.	.	.	.	.	.	.	8B\	.	.	.	.	.	.	.
8r	.	8r	.	8r	.	8r	.	8r	.	8r	8E\J	.	8g#/	8gg#\	.	.	.	.
*Xrep	*	*	*	*Xrep	*	*	*	*	*	*	*	*	*	*	*	*	*	*
=18	=18	=18	=18	=18	=18	=18	=18	=18	=18	=18	=18	=18	=18	=18	=18	=18	=18	=18
*rep	*	*	*	*rep	*	*	*	*	*	*	*	*	*	*	*	*	*	*
4r	.	4AA/	.	4r	.	4r	.	4r	.	4AA/	8r	.	(4b/	(4bb\	.	2.E\_<	2.e 2.c#/	.
.	.	.	.	.	.	.	.	.	.	.	8E\L	.	.	.	.	.	.	.
8r	.	8r	.	8r	.	8r	.	8r	.	8r	8A\J	.	8a/)	8aa\)	.	.	.	.
4E\	.	4r	.	4E/	.	4e 4A/	.	4c#/	.	4EE/	8c#\L	.	8a/L	(8aa\L	.	.	.	.
.	.	.	.	.	.	.	.	.	.	.	8A\	.	8g#/	8gg#\)	.	.	.	.
8r	.	8r	.	8r	.	8r	.	8r	.	8r	8E\J	.	8f#/J	8ff#\J	.	.	.	.
*Xrep	*	*	*	*Xrep	*	*	*	*	*	*	*	*	*	*	*	*	*	*
=19	=19	=19	=19	=19	=19	=19	=19	=19	=19	=19	=19	=19	=19	=19	=19	=19	=19	=19
*rep	*	*	*	*rep	*	*	*	*	*	*	*	*	*	*	*	*	*	*
4r	.	8GG#/	.	4r	.	4r	.	4r	.	8GG#/L	8B\L	.	4.f#/	(4.ff# 4.dd\	.	2.E\_<	2.e 2.B/	.
.	.	8EE'/L	.	.	.	.	.	.	.	8EE'/	8G#\	.	.	.	.	.	.	.
8r	.	8FF#'/J	.	8r	.	8r	.	8r	.	8FF#/J	8A\J	.	.	.	.	.	.	.
4E\	.	8GG#'/L	.	4E/	.	4B/	.	4e/	.	8GG#/L	8B\L	.	8b 8e/	8ee\)	.	.	.	.
.	.	8AA'/	.	.	.	.	.	.	.	8AA/	8c#\	.	8r	8r	.	.	.	.
!	!	!	!	!	!	!	!	!	!	!	!	!	!LO:N:vis=4	!	!	!	!	!
8r	.	8BB'/J	.	8r	.	8r	.	8r	.	8BB/J	8d\J	.	8e/	8ee\	.	.	.	.
*Xrep	*	*	*	*Xrep	*	*	*	*	*	*	*	*	*	*	*	*	*	*
=20	=20	=20	=20	=20	=20	=20	=20	=20	=20	=20	=20	=20	=20	=20	=20	=20	=20	=20
*	*	*	*	*	*	*	*	*	*	*	*	*	*	*	*	*	*^	*
*rep	*	*	*	*rep	*	*	*	*	*	*	*	*	*	*	*	*	*	*	*
4r	.	2.C#\	.	4r	.	4r	.	4r	.	4C#/	8r	.	[<4.a [4.e/	[4.eee [4.ee\	.	2.E\_<	2.e/	4.A\	.
.	.	.	.	.	.	.	.	.	.	.	8E\L	.	.	.	.	.	.	.	.
8r	.	.	.	8r	.	8r	.	8r	.	8r	8A\J	.	.	.	.	.	.	.	.
4E\	.	.	.	4E/	.	4A/	.	4e 4c#/	.	4EE/	8E\L	.	4a] 4e/]	4eee] 4ee\]	.	.	.	4.c#\	.
.	.	.	.	.	.	.	.	.	.	.	8A\	.	.	.	.	.	.	.	.
8r	.	.	.	8r	.	8r	.	8r	.	8r	8c#\J	.	8a 8e/	8aa 8ee\	.	.	.	.	.
*Xrep	*	*	*	*Xrep	*	*	*	*	*	*	*	*	*	*	*	*	*	*	*
*	*	*	*	*	*	*	*	*	*	*	*	*	*	*	*	*	*v	*v	*
=21	=21	=21	=21	=21	=21	=21	=21	=21	=21	=21	=21	=21	=21	=21	=21	=21	=21	=21
*rep	*	*	*	*rep	*	*	*	*	*	*	*	*	*	*	*	*	*	*
4r	.	2.BB/	.	4r	.	4r	.	4r	.	4BB/	8d\L	.	4a 4e/	(4aa 4ee\	.	2.E\_<	2.e 2.B/	.
.	.	.	.	.	.	.	.	.	.	.	8B\	.	.	.	.	.	.	.
8r	.	.	.	8r	.	8r	.	8r	.	8r	8E\J	.	8g#/	8gg#\)	.	.	.	.
!	!	!	!	!	!	!	!	!	!	!	!	!LO:HP:a	!	!	!	!	!	!
.	.	.	.	.	.	.	.	.	.	.	.	<	.	.	<	.	.	.
4E\	.	.	.	4E/	.	4e/	.	4d 4B/	.	4EE/	8E\L	.	8g#/L	8gg#\L	.	.	.	.
.	.	.	.	.	.	.	.	.	.	.	8F#\	.	8a/	8aa\	.	.	.	.
8r	.	.	.	8r	.	8r	.	8r	.	8r	8G#\J	[	8b/J	8bb\J	[	.	.	.
*Xrep	*	*	*	*Xrep	*	*	*	*	*	*	*	*	*	*	*	*	*	*
=22	=22	=22	=22	=22	=22	=22	=22	=22	=22	=22	=22	=22	=22	=22	=22	=22	=22	=22
*	*	*	*	*	*	*	*	*	*	*	*	*	*	*	*	*	*^	*
*rep	*	*	*	*rep	*	*	*	*	*	*	*	*	*	*	*	*	*	*	*
4r	.	2.AA/	.	4r	.	4r	.	4r	.	4AA/	8A\L	.	8dd/L	(8ddd\L	>	2.E\]	2.e/	4.A\	.
.	.	.	.	.	.	.	.	.	.	.	8E\	.	8cc#/	8ccc#\	.	.	.	.	.
8r	.	.	.	8r	.	8r	.	8r	.	8r	8A\J	.	8b/J	8bb\J	.	.	.	.	.
4E\	.	.	.	4E/	.	4e 4A/	.	4c#/	.	4EE/	8c#\L	.	8a/L	8aa\L	.	.	.	4.c#\	.
.	.	.	.	.	.	.	.	.	.	.	8E\	.	8g#/	8gg#\	]	.	.	.	.
8r	.	.	.	8r	.	8r	.	8r	.	8r	8A\J	.	8f#/J	8ff#\J)	.	.	.	.	.
*Xrep	*	*	*	*Xrep	*	*	*	*	*	*	*	*	*	*	*	*	*	*	*
*	*	*	*	*	*	*	*	*	*	*	*	*	*	*	*	*	*v	*v	*
!!LO:PB:g=original
=23	=23	=23	=23	=23	=23	=23	=23	=23	=23	=23	=23	=23	=23	=23	=23	=23	=23	=23
*rep	*	*	*	*	*	*	*	*	*	*	*	*	*	*	*	*	*	*
4r	.	(4GG#/	.	4r	.	4r	.	4.r	.	4.GG#/	8r	.	4.b/	4.bb\	.	4E\	4e/	.
.	.	.	.	.	.	.	.	.	.	.	(8E\L	.	.	.	.	.	.	.
8r	.	8BB\	.	8r	.	8r	.	.	.	.	8B\J	.	.	.	.	8r	8r	.
4E\	.	4E\	.	4E/	.	4e/	.	4e/	.	4EE^/	8G#\L	.	4e/	4ee\	.	4r	4r	.
.	.	.	.	.	.	.	.	.	.	.	8B\)	.	.	.	.	.	.	.
!	!	!	!	!LO:TX:b:t=arco	!	!LO:TX:b:t=arco	!	!LO:TX:b:t=arco.	!	!	!	!	!	!	!	!	!	!
8r	.	8D\)	.	8r	.	8r	.	8r	.	8DD/	8E\J	.	8r	8r	.	8r	8r	.
*Xrep	*	*	*	*	*	*	*	*	*	*	*	*	*	*	*	*	*	*
=24	=24	=24	=24	=24	=24	=24	=24	=24	=24	=24	=24	=24	=24	=24	=24	=24	=24	=24
!	!	!	!	!	!LO:DY:rj	!	!LO:DY:rj	!	!	!	!	!	!	!	!	!	!	!
4C#/	.	4C#/	.	4A^/	p	4a 4e^/	p	[4ee^\	p	4CC#/	8E\L	.	2.r	2.r	.	2.r	2.r	.
.	.	.	.	.	.	.	.	.	.	.	8G#\	.	.	.	.	.	.	.
!	!	!	!	!	!	!	!	!LO:TX:t=P:problem=mixed beam	!	!	!	!	!	!	!	!	!	!
8r	.	16r	.	16r	.	16r	.	16ee\LL]	.	8r	8e\J	.	.	.	.	.	.	.
.	.	16C#|/	.	16A'/	.	16e|/	.	16a|/JJ	.	.	.	.	.	.	.	.	.	.
*	*	*	*	*	*	*	*	*	*	*	*rep	*	*	*	*	*	*	*
4C#/	.	4C#^/	.	4A^/	.	4e^/	.	4a^/	.	4r	8E\L	.	.	.	.	.	.	.
.	.	.	.	.	.	.	.	.	.	.	8G#\	.	.	.	.	.	.	.
8r	.	8r	.	8r	.	8r	.	8r	.	8r	8e\J	.	.	.	.	.	.	.
*	*	*	*	*	*	*	*	*	*	*	*Xrep	*	*	*	*	*	*	*
=25	=25	=25	=25	=25	=25	=25	=25	=25	=25	=25	=25	=25	=25	=25	=25	=25	=25	=25
!LO:TX:b:t=A=:color=red	!	!	!	!	!	!	!	!	!	!	!	!	!	!	!	!	!LO:TX:a:t=A=:color=red	!
4D\	.	4D^\	.	4A'/	.	4a 4d^/	.	[4ff#^\	.	4DD/	8F#\L	.	2.r	2.r	.	2.r	2.r	.
.	.	.	.	.	.	.	.	.	.	.	8A\	.	.	.	.	.	.	.
8r	.	16r	.	16r	.	16r	.	16ff#\LL]	.	8r	8f#\J	.	.	.	.	.	.	.
.	.	16D|\	.	16B/	.	16f#'/	.	16b|\JJ	.	.	.	.	.	.	.	.	.	.
4D\	.	4D^\	.	4B/	.	4f#^/	.	4b^\	.	4D/	8F#\L	.	.	.	.	.	.	.
.	.	.	.	.	.	.	.	.	.	.	8B\	.	.	.	.	.	.	.
8r	.	8r	.	8r	.	8r	.	8r	.	8ryy	8f#\J	.	.	.	.	.	.	.
=26	=26	=26	=26	=26	=26	=26	=26	=26	=26	=26	=26	=26	=26	=26	=26	=26	=26	=26
*	*	*	*	*	*	*	*	*	*	*	*	*	*	*	*	*^	*	*
*	*	*	*	*	*	*	*	*	*	*	*	*	*	*2\right	*	*	*	*	*
!	!	!	!	!	!	!	!	!	!	!	!	!	!LO:N:vis=2	!	!LO:DY:rj:t=fpp.	!	!	!	!LO:DY:rj
4C#/	.	(4.C#^/	.	(4.c#^/	.	(4.g#/	.	(4.ee#X^\	.	2.ryy	(8e#X\L	.	2.g#tt/	2.gg#tt\	fp	[2.G#/	4.C#\	(>4.cc# 4.e#X/	pp
.	.	.	.	.	.	.	.	.	.	.	8c#\)	.	.	.	.	.	.	.	.
8r	.	.	.	.	.	.	.	.	.	.	8G#|\J	.	.	.	<	.	.	.	.
!	!	!	!	!	!LO:HP:t=cres.	!	!	!	!LO:HP:t=cres.	!	!	!	!	!	!	!	!	!	!
4GG#/	.	4.GG#^/	.	4.B#X^/	<	4.f#^/	.	4.dd#X^\	<	.	(8d#X\L	.	.	.	.	.	4.D#X\	4.b#X 4.d#X/	.
!	!	!	!	!	!	!	!	!	!	!	!	!	!	!	!	!	!	!	!LO:HP:t=cres.
.	.	.	.	.	.	.	.	.	.	.	8B#X\)	.	.	.	.	.	.	.	<
8r	.	.	.	.	.	.	.	.	.	.	8G#\J|	.	.	.	.	.	.	.	.
=27	=27	=27	=27	=27	=27	=27	=27	=27	=27	=27	=27	=27	=27	=27	=27	=27	=27	=27	=27
*	*	*	*	*	*	*	*	*	*	*	*	*	*	*	*	*	*	*^	*
4C#/	.	4.C#^/	.	4.c#^/	.	4.e#X^/	.	4.cc#^\	.	2.ryy	(8e#X\L	.	4.g#ttt/	4.gg#ttt\	.	4.G#/]	4.E#X\	2.g#/)	4.c#\	.
.	.	.	.	.	.	.	.	.	.	.	8c#\)	.	.	.	.	.	.	.	.	.
8r	.	.	.	.	.	.	.	.	.	.	8G#|\J	.	.	.	.	.	.	.	.	.
*	*	*	*	*	*	*	*	*	*	*	*	*	*Xtuplet	*	*	*	*	*	*	*
!	!LO:DY:rj	!	!	!	!	!	!	!	!	!	!	!	!LO:TUP:b:problem=klamra łukowa	!LO:TUP:a:problem=klamra łukowa	!	!	!	!	!	!
4E\	sf	4.E^\)	.	4.dn^\)	.	4.en^/)	.	4.b^\)	.	.	(8en\L	.	24g#/LL	24gg#ttt\LL	.	4.B/	4.En\	.	4.dn\	.
.	.	.	.	.	.	.	.	.	.	.	.	.	24a/	24aa\	.	.	.	.	.	.
.	.	.	.	.	.	.	.	.	.	.	.	.	24g#/JJ	24gg#\JJ	.	.	.	.	.	.
.	.	.	.	.	.	.	.	.	.	.	8B\)	.	8f#'/L	8ff#|\L	.	.	.	.	.	.
8r	.	.	.	.	.	.	.	.	.	.	8d|\J	.	8e'/J	8ee|\J	[	.	.	.	.	.
*	*	*	*	*	*	*	*	*	*	*	*	*	*	*	*	*v	*v	*	*	*
*	*	*	*	*	*	*	*	*	*	*	*	*	*	*	*	*	*v	*v	*
=28	=28	=28	=28	=28	=28	=28	=28	=28	=28	=28	=28	=28	=28	=28	=28	=28	=28	=28
!LO:TX:a:t=arco	!LO:DY:rj	!	!LO:DY:rj	!	!LO:DY:rj	!	!	!	!LO:DY:rj	!	!	!	!	!	!	!	!	!
4AA/	f	8AA/	sf	8a 8e 8c#\	sf	8cc# 8e/	.	8aa 8a\	sf	4AA 4AAA/	(8c#\L	.	8a/	8aa\	sf	4A 4AA\	4a 4c#^^/	sf
.	.	8r	.	8r	.	8r	.	8r	.	.	8A\)	.	8r	8r	.	.	.	.
!	!	!	!	!	!	!	!	!	!LO:DY:rj	!	!	!	!	!	!LO:DY:rj	!	!	!
8r	.	8r	.	8r	.	8c#|/	.	8a|/	p	8r	8E\J|	.	8a/	8cc#'\	p <	8r	8r	.
!	!	!LO:N:vis=4	!	!	!	!	!	!	!	!	!	!	!	!	!	!	!	!
!LO:TX:b:t=pizzi	!LO:DY:rj	!LO:TX:b:t=pizzi	!	!	!	!	!	!	!	!	!	!	!	!	!	!	!	!
4A\	p	8A\	.	4r	.	8c#/L	.	8a/L	.	4r	(8A\L	.	8a/L	8cc#\L	.	4r	4r	.
.	.	8r	.	.	.	8d/	.	8b/	.	.	8e\)	.	8b/	8dd\	.	.	.	.
8r	.	8r	.	8r	.	8e/J	.	8cc#/J	.	8r	8A|\J	.	8cc#/J	8ee\J	[	8r	8r	.
!!LO:PB:g=original
=29	=29	=29	=29	=29	=29	=29	=29	=29	=29	=29	=29	=29	=29	=29	=29	=29	=29	=29
4BB/	.	4BB/	.	4B/	.	4.g#^/	.	4.ee^\	.	4BB 4BBB/	8r	.	(4.ee^\	(4.gg#\	.	2.r	2.r	.
.	.	.	.	.	.	.	.	.	.	.	(8F#\L	.	.	.	.	.	.	.
8r	.	8r	.	8r	.	.	.	.	.	8r	8B\J	.	.	.	.	.	.	.
4r	.	4r	.	4r	.	8f#/	.	8dd\	.	4r	8d\L	.	4dd\)	4ff#\)	.	.	.	.
.	.	.	.	.	.	8r	.	8r	.	.	8f#\	.	.	.	.	.	.	.
8r	.	8r	.	8r	.	8d/	.	8b\	.	8r	8B\J)	.	8b\	8dd\	.	.	.	.
=30	=30	=30	=30	=30	=30	=30	=30	=30	=30	=30	=30	=30	=30	=30	=30	=30	=30	=30
!	!	!	!	!	!	!	!	!	!	!	!	!	!	!	!	!	!LO:TX:a:t==B:color=red	!
4E\	.	8r	.	8E/	.	8c#/	.	8a/	.	4EE/	8r	.	8a/	8cc#\	.	2.r	2.r	.
.	.	(8c#\L	.	8r	.	8r	.	(8e/L	.	.	8E\L	.	4ryy	8r	.	.	.	.
8r	.	8A\J	.	8r	.	8r	.	8a/J	.	8r	8A\J	.	.	8r	.	.	.	.
4r	.	8E/L	.	4r	.	4r	.	8cc#\L	.	4r	8c#\L	.	4f#/	4ff#\	.	.	.	.
.	.	8C#/	.	.	.	.	.	8a\	.	.	8A\	.	.	.	.	.	.	.
8r	.	8AA/J	.	8r	.	8r	.	8cc#\J	.	8r	8E\J	.	8e/	8ee\	.	.	.	.
=31	=31	=31	=31	=31	=31	=31	=31	=31	=31	=31	=31	=31	=31	=31	=31	=31	=31	=31
4E\	.	4EE/)	.	8B/	.	8g#/	.	8ee\)	.	4EE/	8r	.	8e/	8dd\	.	2.r	2.r	.
.	.	.	.	8r	.	(8e/L	.	8r	.	.	8G#\L	.	(>8e/L	8r	.	.	.	.
8r	.	8r	.	8r	.	8f#/J	.	8r	.	8r	8A\J	.	8f#/J	8r	.	.	.	.
4r	.	(8E\L	.	4r	.	8g#/L	.	4r	.	(8EE/L	(8E\L	.	8g#/	4ryy	.	.	.	.
.	.	8D#X\)	.	.	.	8b/	.	.	.	8DD#X/)	8D#X\	.	8dd>\L	.	.	.	.	.
8r	.	8Dn\J	.	8r	.	8ee/J)	.	8r	.	8DDn/J	8Dn\J)	.	8ee>\J)	8ryy	.	.	.	.
=32	=32	=32	=32	=32	=32	=32	=32	=32	=32	=32	=32	=32	=32	=32	=32	=32	=32	=32
!	!	!	!	!	!	!	!	!	!LO:DY:rj	!	!	!	!	!LO:N:vis=8	!	!	!	!
4C#/	.	4C#^/	.	4A^/	.	4a 4e^/	.	[4ee^\	p	4CC#/	8C#\L	.	2.ryy	4ee\	.	2.r	2.r	.
.	.	.	.	.	.	.	.	.	.	.	8E\	.	.	.	.	.	.	.
!	!	!	!	!	!	!	!	!LO:TX:t=P:problem=mixed beam	!	!	!	!	!	!	!	!	!	!
8r	.	16r	.	16r	.	16r	.	16ee\LL]	.	8r	8A\J	.	.	8r	.	.	.	.
.	.	16C#'/	.	16A'/	.	16e'/	.	16a'/JJ	.	.	.	.	.	.	.	.	.	.
4C#/	.	4C#^/	.	4A^/	.	4e^/	.	4a^/	.	4C#/	8E\L	.	.	4r	.	.	.	.
.	.	.	.	.	.	.	.	.	.	.	8A\	.	.	.	.	.	.	.
8r	.	8r	.	8r	.	8r	.	8r	.	8ryy	8e\J	.	.	8r	.	.	.	.
=33	=33	=33	=33	=33	=33	=33	=33	=33	=33	=33	=33	=33	=33	=33	=33	=33	=33	=33
!	!	!	!	!	!	!	!	!	!	!	!	!	!	!	!	!	!LO:TX:a:t=A=	!
4D\yy	.	4D^\yy	.	4A'/yy	.	4ayy 4d^/yy	.	[y4ff#^\yy	.	4DD/yy	8F#\Lyy	.	2.ryy	2.ryy	.	2.ryy	2.ryy	.
.	.	.	.	.	.	.	.	.	.	.	8A\yy	.	.	.	.	.	.	.
8ryy	.	16ryy	.	16ryy	.	16ryy	.	16ff#\LL]yy	.	8ryy	8f#\Jyy	.	.	.	.	.	.	.
.	.	16D|\yy	.	16B/yy	.	16f#'/yy	.	16b|\JJyy	.	.	.	.	.	.	.	.	.	.
4D\yy	.	4D^\yy	.	4B/yy	.	4f#^/yy	.	4b^\yy	.	4D/yy	8F#\Lyy	.	.	.	.	.	.	.
.	.	.	.	.	.	.	.	.	.	.	8B\yy	.	.	.	.	.	.	.
8ryy	.	8ryy	.	8ryy	.	8ryy	.	8ryy	.	8ryy	8f#\Jyy	.	.	.	.	.	.	.
=34	=34	=34	=34	=34	=34	=34	=34	=34	=34	=34	=34	=34	=34	=34	=34	=34	=34	=34
*	*	*	*	*	*	*	*	*	*	*	*	*	*	*	*	*^	*	*
!	!	!	!	!	!	!	!	!	!	!	!	!	!	!	!LO:DY:rj:t=fpp.	!	!	!	!LO:DY:rj
4C#/yy	.	(y4.C#^/yy	.	(y4.c#^/yy	.	(y4.g#/yy	.	(y4.ee#X^\yy	.	2.ryy	(y8e#X\Lyy	.	2.g#tt/yy	2.gg#tt\yy	fpy	[y2.G#/yy	4.C#\yy	(y>4.cc#yy 4.e#X/yy	ppy
.	.	.	.	.	.	.	.	.	.	.	8c#\)yy	.	.	.	.	.	.	.	.
8ryy	.	.	.	.	.	.	.	.	.	.	8G#|\Jyy	.	.	.	<	.	.	.	.
!	!	!	!	!	!LO:HP:t=cres.	!	!	!	!LO:HP:t=cres.	!	!	!	!	!	!	!	!	!	!
4GG#/yy	.	4.GG#^/yy	.	4.B#X^/yy	<	4.f#^/yy	.	4.dd#X^\yy	<	.	(y8d#X\Lyy	.	.	.	.	.	4.D#X\yy	4.b#Xyy 4.d#X/yy	.
!	!	!	!	!	!	!	!	!	!	!	!	!	!	!	!	!	!	!	!LO:HP:t=cres.
.	.	.	.	.	.	.	.	.	.	.	8B#X\)yy	.	.	.	.	.	.	.	<
8ryy	.	.	.	.	.	.	.	.	.	.	8G#\J|yy	.	.	.	.	.	.	.	.
=35	=35	=35	=35	=35	=35	=35	=35	=35	=35	=35	=35	=35	=35	=35	=35	=35	=35	=35	=35
*	*	*	*	*	*	*	*	*	*	*	*	*	*	*	*	*	*	*^	*
4C#/yy	.	4.C#^/yy	.	4.c#^/yy	.	4.e#X^/yy	.	4.cc#^\yy	.	2.ryy	(y8e#X\Lyy	.	4.g#ttt/yy	4.gg#ttt\yy	.	4.G#/]yy	4.E#X\yy	2.g#/)yy	4.c#\yy	.
.	.	.	.	.	.	.	.	.	.	.	8c#\)yy	.	.	.	.	.	.	.	.	.
8ryy	.	.	.	.	.	.	.	.	.	.	8G#|\Jyy	.	.	.	.	.	.	.	.	.
!	!LO:DY:rj	!	!	!	!	!	!	!	!	!	!	!	!LO:TUP:b:problem=klamra łukowa	!LO:TUP:a:problem=klamra łukowa	!	!	!	!	!	!
4E\yy	sfy	4.E^\)yy	.	4.dn^\)yy	.	4.en^/)yy	.	4.b^\)yy	.	.	(y8en\Lyy	.	24g#/LLyy	24gg#ttt\LLyy	.	4.B/yy	4.En\yy	.	4.dn\yy	.
.	.	.	.	.	.	.	.	.	.	.	.	.	24a/yy	24aa\yy	.	.	.	.	.	.
.	.	.	.	.	.	.	.	.	.	.	.	.	24g#/JJyy	24gg#\JJyy	.	.	.	.	.	.
.	.	.	.	.	.	.	.	.	.	.	8B\)yy	.	8f#'/Lyy	8ff#|\Lyy	.	.	.	.	.	.
8ryy	.	.	.	.	.	.	.	.	.	.	8d|\Jyy	.	8e'/Jyy	8ee|\Jyy	[	.	.	.	.	.
*	*	*	*	*	*	*	*	*	*	*	*	*	*	*	*	*v	*v	*	*	*
*	*	*	*	*	*	*	*	*	*	*	*	*	*	*	*	*	*v	*v	*
=36	=36	=36	=36	=36	=36	=36	=36	=36	=36	=36	=36	=36	=36	=36	=36	=36	=36	=36
!yLO:TX:a:t=arco	!LO:DY:rj	!	!LO:DY:rj	!	!LO:DY:rj	!	!	!	!LO:DY:rj	!	!	!	!	!	!	!	!	!
4AA/yy	fy	8AA/yy	sfy	8ayy 8eyy 8c#\yy	sfy	8cc#yy 8e/yy	.	8aayy 8a\yy	sfy	4AAyy 4AAA/yy	(y8c#\Lyy	.	8a/yy	8aa\yy	sfyy	4Ayy 4AA\yy	4ayy 4c#^^/yy	sfy
.	.	8ryy	.	8ryyy	.	8ryy	.	8ryy	.	.	8A\)yy	.	8ryy	8ryy	.	.	.	.
!	!	!	!	!	!	!	!	!	!LO:DY:rj	!	!	!	!	!	!LO:DY:rj	!	!	!
8ryy	.	8ryy	.	8ryy	.	8c#|/yy	.	8a|/yy	py	8ryy	8E\J|yy	.	8a/yy	8cc#'\yy	py <	8ryy	8ryy	.
!	!	!LO:N:vis=4	!	!	!	!	!	!	!	!	!	!	!	!	!	!	!	!
!yLO:TX:b:t=pizzi	!LO:DY:rj	!yLO:TX:b:t=pizzi	!	!	!	!	!	!	!	!	!	!	!	!	!	!	!	!
4A\yy	py	8A\yy	.	4ryy	.	8c#/Lyy	.	8a/Lyy	.	4ryy	(y8A\Lyy	.	8a/Lyy	8cc#\Lyy	.	4ryy	4ryy	.
.	.	8ryy	.	.	.	8d/yy	.	8b/yy	.	.	8e\)yy	.	8b/yy	8dd\yy	.	.	.	.
8ryy	.	8ryy	.	8ryy	.	8e/Jyyy	.	8cc#/Jyy	.	8ryy	8A|\Jyy	.	8cc#/Jyy	8ee\Jyy	[	8ryy	8ryy	.
=37	=37	=37	=37	=37	=37	=37	=37	=37	=37	=37	=37	=37	=37	=37	=37	=37	=37	=37
4BB/yy	.	4BB/yy	.	4B/yy	.	4.g#^/yy	.	4.ee^\yy	.	4BByy 4BBB/yy	8ryy	.	(y4.ee^\yy	(y4.gg#\yy	.	2.ryy	2.ryy	.
.	.	.	.	.	.	.	.	.	.	.	(y8F#\Lyy	.	.	.	.	.	.	.
8ryy	.	8ryy	.	8ryy	.	.	.	.	.	8ryy	8B\Jyy	.	.	.	.	.	.	.
4ryy	.	4ryy	.	4ryy	.	8f#/yy	.	8dd\yy	.	4ryy	8d\Lyy	.	4dd\)yy	4ff#\)yy	.	.	.	.
.	.	.	.	.	.	8ryy	.	8ryy	.	.	8f#\yy	.	.	.	.	.	.	.
8ryy	.	8ryy	.	8ryy	.	8d/yy	.	8b\yy	.	8ryy	8B\J)yy	.	8b\yy	8dd\yy	.	.	.	.
=38	=38	=38	=38	=38	=38	=38	=38	=38	=38	=38	=38	=38	=38	=38	=38	=38	=38	=38
!	!	!	!	!	!	!	!	!	!	!	!	!	!	!	!	!	!LO:TX:a:t==B.	!
4E\yy	.	8ryy	.	8E/yy	.	8c#/yy	.	8a/yy	.	4EE/yy	8ryy	.	8a/yy	8cc#\yy	.	2.ryy	2.ryy	.
.	.	(y8c#\Lyy	.	8ryy	.	8ryy	.	(y8e/Lyy	.	.	8EL\yy	.	8ryy	8ryy	.	.	.	.
8ryy	.	8A\Jyy	.	8ryy	.	8ryy	.	8a/Jyy	.	8ryy	8AJ\yy	.	8ryy	8ryy	.	.	.	.
4ryy	.	8E/Lyy	.	4ryy	.	4ryy	.	8cc#\Lyy	.	4ryy	8c#L\yy	.	4f#/yy	4ff#\yy	.	.	.	.
.	.	8C#/yy	.	.	.	.	.	8a\yy	.	.	8A\yy	.	.	.	.	.	.	.
8ryy	.	8AA/J)yy	.	8ryy	.	8ryy	.	8cc#\J)yy	.	8ryy	8EJ\yy	.	8e/yy	8ee\yy	.	.	.	.
=39	=39	=39	=39	=39	=39	=39	=39	=39	=39	=39	=39	=39	=39	=39	=39	=39	=39	=39
4E\	.	8r	.	8E/	.	8c#/L	.	8a/	.	8E 8EE/	8e 8A\	.	8a/	8cc#\	.	2.r	2.r	.
.	.	8AA/L	.	8A/L	.	8A/	.	8a\L	.	8r	8r	.	8r	8r	.	.	.	.
8r	.	8C#/J	.	8C#/J	.	8c#/J	.	8cc#\J	.	8r	8r	.	8r	8r	.	.	.	.
4r	.	8E\L	.	8E/L	.	8e/L	.	8ee\L	.	4.ryy	4r	.	4r	4r	.	.	.	.
.	.	8A\	.	8A/	.	8a/	.	8aa\	.	.	.	.	.	.	.	.	.	.
8r	.	8c#\J	.	8c#/J	.	8cc#/J	.	8ccc#\J	.	.	8r	.	8r	8r	.	.	.	.
!!LO:PB:g=original
=40	=40	=40	=40	=40	=40	=40	=40	=40	=40	=40	=40	=40	=40	=40	=40	=40	=40	=40
4r	.	4e\	.	4e\	.	4ee\	.	4eee\	.	2.r;	2.r;	.	2.r;	2.r;	.	2.r;	2.r;	.
8r	.	8r	.	8r	.	8r	.	8r	.	.	.	.	.	.	.	.	.	.
!	!LO:DY:rj	!	!LO:DY:rj	!	!LO:DY:rj	!	!LO:DY:rj	!	!LO:DY:rj	!	!	!	!	!	!	!	!	!
4E\	sf	4E\	sf	4e\	sf	4ee 4b 4e\	sf	4gg# 4b 4e\	sf	.	.	.	.	.	.	.	.	.
8r;	.	8r;	.	8r;	.	8r;	.	8r;	.	.	.	.	.	.	.	.	.	.
=41	=41	=41	=41	=41	=41	=41	=41	=41	=41	=41	=41	=41	=41	=41	=41	=41	=41	=41
*	*	*	*	*	*	*	*	*	*	*	*	*	*	*8va	*	*	*	*
*	*	*	*	*	*	*	*	*	*	*	*ped	*	*	*ped	*	*	*	*
!	!LO:DY:rj	!	!LO:DY:rj	!	!LO:DY:rj	!	!LO:DY:rj	!	!LO:DY:rj	!	!	!LO:DY:rj:b=2	!	!	!LO:DY:rj	!	!	!
4AA/	ff	4A\	ff	(8a\L	ff	8cc# 8e/	ff	8aa 8a\	ff	4AA 4AAA/	8eL 8c#\	ff	4cc# 4a\	4aaa 4ccc# 4aa\	ff	[2.AA^/	2.ee 2.a 2.e^/	mf
.	.	.	.	8e\)	.	8r	.	8r	.	.	8A\	.	.	.	.	.	.	.
8r	.	8r	.	8a\J	.	8a/	.	8cc#\	.	8r	8E\J	.	8cc# 8a\	8ccc# 8aa\	.	.	.	.
*	*	*	*	*rep	*	*	*	*	*	*	*rep	*	*Xped	*Xped	*	*	*	*
4E\	.	4E\	.	(8a\L	.	8a/L	.	8cc#\L	.	4EE/	8eL 8c#\	.	8cc#L 8a\	8ccc#L 8aa\	.	.	.	.
.	.	.	.	8e\)	.	8b/	.	8dd\	.	.	8A\	.	8dd 8b\	8ddd 8bb\	.	.	.	.
8r	.	8r	.	8a\J	.	8cc#/J	.	8ee\J	.	8r	8E\J	.	8eeJ 8cc#\	8eeeJ 8ccc#\	.	.	.	.
*	*	*	*	*Xrep	*	*	*	*	*	*	*Xrep	*	*	*	*	*	*	*
=42	=42	=42	=42	=42	=42	=42	=42	=42	=42	=42	=42	=42	=42	=42	=42	=42	=42	=42
*	*	*	*	*	*	*	*	*	*	*rep	*ped	*	*	*ped	*	*	*	*
4A\	.	4A\	.	8a\L	.	8dd\L	.	4.ff#\	.	4AA 4AAA/	8dL 8B\	.	8dd\L	(4.fff# 4.ddd 4.ff#\	.	2.AA/_	2.dd 2.b 2.e/	.
.	.	.	.	8b\	.	8b\	.	.	.	.	8E\	.	8b\	.	.	.	.	.
*	*	*	*	*	*	*	*	*	*	*	*Xped	*	*	*	*	*	*	*
8r	.	8r	.	8a\J	.	8a\J	.	.	.	8r	8B\J	.	8a\J	.	.	.	.	.
*	*	*	*	*	*	*	*	*	*	*	*	*	*	*Xped	*	*	*	*
4E\	.	4E\	.	8g#\L	.	8g#\L	.	8ee\	.	4EE/	8e\L	.	8g#\L	8eee 8ee\)	.	.	.	.
.	.	.	.	8f#\	.	8b\	.	8r	.	.	8d\	.	8b\	8r	.	.	.	.
8r	.	8r	.	8e\J	.	8dd\J	.	8ee\	.	8r	8B\J	.	8dd\J	8eee\	.	.	.	.
*	*	*	*	*	*	*	*	*	*	*Xrep	*	*	*	*	*	*	*	*
=43	=43	=43	=43	=43	=43	=43	=43	=43	=43	=43	=43	=43	=43	=43	=43	=43	=43	=43
*	*	*	*	*	*	*	*	*	*	*	*	*	*	*	*	*	*^	*
*	*	*	*	*	*	*	*	*	*	*	*rep	*	*rep	*rep	*	*	*	*	*
*rep	*	*rep	*	*	*	*	*	*	*	*rep	*ped	*	*	*ped	*	*	*	*	*
!	!	!	!	!	!	!	!	!	!	!	!LO:TX:t=P:problem=dwutaktowa repetycja	!	!LO:TX:t=P:problem=dwutaktowa repetycja	!LO:TX:t=P:problem=dwutaktowa repetycja	!LO:DY:rj	!	!	!	!
4A\	.	4A\	.	(8a\L	.	8cc#/L	.	8aa 8a\	.	4AA 4AAA/	8eL 8c#\	.	4cc# 4a\	4aaa 4ccc# 4aa\	ff	2.AA/_	4.cc# 4.a 4.e/	4.ryy	.
.	.	.	.	8e\)	.	8a/	.	8r	.	.	8A\	.	.	.	.	.	.	.	.
8r	.	8r	.	8a\J	.	8e/J	.	8cc#\	.	8r	8E\J	.	8cc# 8a\	8ccc# 8aa\	.	.	.	.	.
*	*	*	*	*rep	*	*	*	*	*	*	*Xped	*	*	*Xped	*	*	*	*	*
4E\	.	4E\	.	(8a\L	.	8a/L	.	8cc#\L	.	4EE/	8eL 8c#\	.	8cc#L 8a\	8ccc#L 8aa\	.	.	4a./	4a.\	.
.	.	.	.	8e\)	.	8b/	.	8dd\	.	.	8A\	.	8dd 8b\	8ddd 8bb\	.	.	.	.	.
8r	.	8r	.	8a\J	.	8cc#/J	.	8ee\J	.	8r	8E\J	.	8eeJ 8cc#\	8eeeJ 8ccc#\	.	.	.	.	.
*Xrep	*	*Xrep	*	*Xrep	*	*	*	*	*	*Xrep	*	*	*	*	*	*	*	*	*
*	*	*	*	*	*	*	*	*	*	*	*	*	*	*	*	*	*v	*v	*
=44	=44	=44	=44	=44	=44	=44	=44	=44	=44	=44	=44	=44	=44	=44	=44	=44	=44	=44
*rep	*	*rep	*	*	*	*	*	*	*	*rep	*ped	*	*	*ped	*	*	*	*
4A\	.	4A\	.	8a\L	.	8dd\L	.	4.ff#\	.	4AA 4AAA/	8dL 8B\	.	8dd\L	(4.fff# 4.ddd 4.ff#\	.	2.AA/_	2.dd 2.b 2.e/	.
.	.	.	.	8b\	.	8b\	.	.	.	.	8E\	.	8b\	.	.	.	.	.
*	*	*	*	*	*	*	*	*	*	*	*Xped	*	*	*	*	*	*	*
8r	.	8r	.	8a\J	.	8a\J	.	.	.	8r	8B\J	.	8a\J	.	.	.	.	.
*	*	*	*	*	*	*	*	*	*	*	*	*	*	*Xped	*	*	*	*
4E\	.	4E\	.	8g#\L	.	8g#\L	.	8ee\	.	4EE/	8e\L	.	8g#\L	8eee 8ee\)	.	.	.	.
.	.	.	.	8f#\	.	8b\	.	8r	.	.	8d\	.	8b\	8r	.	.	.	.
8r	.	8r	.	8e\J	.	8dd\J	.	8ee\	.	8r	8B\J	.	8dd\J	8eee\	.	.	.	.
*Xrep	*	*Xrep	*	*	*	*	*	*	*	*Xrep	*Xrep	*	*Xrep	*Xrep	*	*	*	*
=45	=45	=45	=45	=45	=45	=45	=45	=45	=45	=45	=45	=45	=45	=45	=45	=45	=45	=45
*	*	*	*	*	*	*	*	*	*	*	*ped	*	*	*	*	*	*	*
4A\	.	4A\	.	(8a\L	.	(8cc#/L	.	4ccc#\	.	4AA 4AAA/	8eL 8c#\	.	4cc# 4a\	4cccc# 4ccc#\	.	2.AA/]	2.cc# 2.a 2.e/	.
.	.	.	.	8e\)	.	8a/)	.	.	.	.	8A\	.	.	.	.	.	.	.
*	*	*	*	*	*	*	*	*	*	*	*Xped	*	*	*	*	*	*	*
8r	.	8r	.	8c#'\J	.	8e/J	.	8gg#\	.	8r	8E\J	.	8gg#\	8ggg#\	.	.	.	.
*	*	*	*	*	*	*	*	*	*	*	*ped	*	*	*	*	*	*	*
*	*	*	*	*rep	*	*rep	*	*	*	*rep	*rep	*	*	*	*	*	*	*
4A\	.	4A\	.	(8a\L	.	(8cc#/L	.	4aa\	.	4AA 4AAA/	8eL 8c#\	.	4aa\	4aaa\	.	.	.	.
.	.	.	.	8e\)	.	8a/)	.	.	.	.	8A\	.	.	.	.	.	.	.
8r	.	8r	.	8c#'\J	.	8e/J	.	8dd#X\	.	8r	8E\J	.	8dd#X\	8ddd#X\	.	.	.	.
*	*	*	*	*Xrep	*	*Xrep	*	*	*	*Xrep	*Xrep	*	*	*	*	*	*	*
*	*	*	*	*	*	*	*	*	*	*	*Xped	*	*	*X8va	*	*	*	*
!!LO:PB:g=original
=46	=46	=46	=46	=46	=46	=46	=46	=46	=46	=46	=46	=46	=46	=46	=46	=46	=46	=46
*	*	*	*	*	*	*	*	*	*	*	*rep	*	*	*ped	*	*	*	*
*rep	*	*rep	*	*rep	*	*rep	*	*	*	*rep	*ped	*	*	*	*	*	*	*
!	!	!	!	!	!	!	!	!	!	!	!	!	!	!LO:TX:t=P:problem=takty nr 46-47 powinny być oktawę wyżej [brak przenośnika oktawowego]	!	!LO:N:vis=2	!	!
4A\	.	4A\	.	(8a\L	.	(8cc#/L	.	4ee\	.	4AA 4AAA/	8eL 8c#\	.	4ee\	4ee\	.	2AA./	2.a 2.e/	.
.	.	.	.	8e\)	.	8a/)	.	.	.	.	8A\	.	.	.	.	.	.	.
*	*	*	*	*	*	*	*	*	*	*	*Xped	*	*	*Xped	*	*	*	*
8r	.	8r	.	8c#'\J	.	8e/J	.	8b#X\	.	8r	8E\J	.	8b#X\	8b#X\	.	.	.	.
*	*	*	*	*Xrep	*	*Xrep	*	*	*	*	*ped	*	*	*ped	*	*	*	*
!	!	!	!	!	!	!LO:TX:t=P:problem=mixed beam	!	!	!	!	!	!	!	!	!	!	!	!
4A\	.	4A\	.	(8a\L	.	8a\L	.	(8cc#\L	.	4AA 4AAA/	8eL 8c#\	.	(8cc#\L	(8cc#\L	.	.	.	.
.	.	.	.	8e\)	.	8cc#\	.	8ee\)	.	.	8A\	.	8ee\)	8ee\)	.	.	.	.
*	*	*	*	*	*	*	*	*	*	*	*Xped	*	*	*Xped	*	*	*	*
8r	.	8r	.	8a\J	.	8e/J	.	8cc#\J	.	8r	8E\J	.	8cc#\J	8cc#\J	.	.	.	.
*Xrep	*	*Xrep	*	*	*	*	*	*	*	*Xrep	*Xrep	*	*	*	*	*	*	*
=47	=47	=47	=47	=47	=47	=47	=47	=47	=47	=47	=47	=47	=47	=47	=47	=47	=47	=47
4A\	.	4A\	.	4a\	.	4a/	.	4a\	.	4AA/	4e 4c#\	.	4a/	4a/	.	4AA/	4e/	.
8r	.	8r	.	8r	.	8r	.	8r	.	8r	8r	.	8r	8r	.	8r	8r	.
!	!LO:DY:rj:t=sff	!	!	!	!LO:DY:rj:t=sff	!	!LO:DY:rj:t=sff	!	!LO:DY:rj:t=sff	!	!	!LO:DY:rj:t=sff	!	!	!LO:DY:rj:t=sff	!	!	!
8AA/	sf	8AA/	.	8a 8e 8A\	sf	8cc# 8e 8A/	sf	8aa 8a\	sf	8AA 8AAA/	8e 8c# 8A 8E\	sf	8ee 8cc# 8a\	8aa 8ee 8cc# 8a\	sf	4r	4r	.
8r	.	8r	.	8r	.	8r	.	8r	.	8r	8r	.	8r	8r	.	.	.	.
8r	.	8r	.	8r	.	8r	.	8r	.	8r	8r	.	8r	8r	.	8r	8r	.
==	==	==	==	==	==	==	==	==	==	==	==	==	==	==	==	==	==	==
*-	*-	*-	*-	*-	*-	*-	*-	*-	*-	*-	*-	*-	*-	*-	*-	*-	*-	*-
!!!system-decoration: (<p1>{g1}<g2>)
!!!RDF**kern: > = above
!!!RDF**kern: < = below
!!!RDF**kern: | = vertical stroke
!!!ENC: Andrzej Kubiczek
!!!END: 2021-08-17
!!!ENC: Tomasz Grochalski
!!!END: 2021-08-08
!!!YEC: Copyright 2022 Narodowy Instytut Fryderyka Chopina (https://polishscores.org)
!!!YEM: Licence CC BY 4.0 (https://creativecommons.org/licenses/by/4.0)
